src/icons/svg/role.svg

<?xml version="1.0" standalone="no"?><!DOCTYPE svg PUBLIC "-//W3C//DTD SVG 1.1//EN" "http://www.w3.org/Graphics/SVG/1.1/DTD/svg11.dtd"><svg t="1555826551359" class="icon" style="" viewBox="0 0 1024 1024" version="1.1" xmlns="http://www.w3.org/2000/svg" p-id="7345" xmlns:xlink="http://www.w3.org/1999/xlink" width="300" height="300"><defs><style type="text/css"></style></defs><path d="M792.703177 534.452774c-49.288352 33.217439-108.257215 52.515189-171.718341 52.515189-63.271312 0-122.050361-19.171208-171.1489-52.135561-132.996298 65.042909-224.866244 203.290726-224.866244 363.303875 0 169.314031 793.232441 166.972993 793.232441 0C1018.138862 737.7435 926.079103 599.305869 792.703177 534.452774L792.703177 534.452774 792.703177 534.452774zM354.359526 270.99103c0-149.636653 119.329695-270.99103 266.62531-270.99103 147.295615 0 266.62531 121.291105 266.62531 270.99103 0 149.636653-119.329695 270.864488-266.62531 270.864488C473.68922 541.855518 354.359526 420.627684 354.359526 270.99103L354.359526 270.99103 354.359526 270.99103 354.359526 270.99103zM177.959107 912.182508c0 6.200589 0.94907 12.084821 2.783938 17.905781C80.584558 913.827562 5.797867 881.749007 5.797867 833.409724c0-138.500902 79.468768-258.146954 194.622556-314.458422 40.177283 27.01685 88.010395 43.340849 139.576515 45.049174C241.040605 646.696082 177.959107 771.97328 177.959107 912.182508L177.959107 912.182508 177.959107 912.182508zM310.006336 270.99103c0-68.775916 21.638789-132.426856 58.399421-184.309332C361.952083 86.112256 355.561681 85.859171 349.108007 85.859171c-121.227834 0-219.488182 99.842131-219.488182 223.031376s98.197077 223.031376 219.424911 223.031376c27.269936 0 53.400988-5.061705 77.444086-14.362588C355.498409 459.666083 310.006336 370.76989 310.006336 270.99103L310.006336 270.99103zM310.006336 270.99103" p-id="7346"></path></svg>

<svg class="icon" viewBox="0 0 1024 1024" xmlns="http://www.w3.org/2000/svg" width="300" height="300"><defs><style/></defs><path d="M792.703 534.453c-49.288 33.217-108.257 52.515-171.718 52.515-63.271 0-122.05-19.171-171.15-52.136C316.84 599.875 224.97 738.123 224.97 898.136c0 169.314 793.232 166.973 793.232 0-.063-160.392-92.123-298.83-225.499-363.683zM354.36 270.99C354.36 121.354 473.69 0 620.985 0 768.28 0 887.61 121.291 887.61 270.991c0 149.637-119.33 270.865-266.625 270.865-147.296 0-266.625-121.228-266.625-270.865zm-176.4 641.192c0 6.2.948 12.084 2.783 17.905C80.585 913.828 5.798 881.75 5.798 833.41c0-138.501 79.469-258.147 194.622-314.459 40.178 27.017 88.01 43.341 139.577 45.05-98.956 82.695-162.038 207.972-162.038 348.182zM310.005 270.99c0-68.776 21.64-132.427 58.4-184.31-6.454-.569-12.844-.822-19.298-.822-121.228 0-219.488 99.842-219.488 223.032s98.197 223.03 219.425 223.03c27.27 0 53.4-5.06 77.444-14.362-70.99-57.893-116.483-146.79-116.483-246.568zm0 0"/></svg>
